asset_auto_exported/icn_submotiv_bill.svg

<?xml version="1.0" encoding="UTF-8"?>
<svg width="40px" height="40px" viewBox="0 0 40 40" version="1.1" xmlns="http://www.w3.org/2000/svg" xmlns:xlink="http://www.w3.org/1999/xlink">
    <title>icn_submotiv_bill</title>
    <g id="Maria" stroke="none" stroke-width="1" fill="none" fill-rule="evenodd">
        <g id="Assets/Global/40/SubmotivBills" fill="#000000" fill-rule="nonzero">
            <g id="-----ICON-LAYERS-----" transform="translate(0.000500, 0.000200)">
                <path d="M19.995,7.10542736e-15 C31.038,7.10542736e-15 39.99,8.952 39.99,19.995 C39.99,31.038 31.038,39.99 19.995,39.99 C8.952,39.99 2.13162821e-14,31.038 2.13162821e-14,19.995 C2.13162821e-14,8.952 8.952,7.10542736e-15 19.995,7.10542736e-15 Z M21.918,10.221 L13.741,10.221 C11.83,10.221 10.274,11.778 10.274,13.692 L10.274,13.692 L10.293,26.251 C10.293,28.164 11.848,29.721 13.76,29.721 L13.76,29.721 L26.308,29.721 C28.22,29.721 29.774,28.164 29.774,26.25 L29.774,26.25 L29.759,17.778 C29.758,16.496 29.214,15.264 28.266,14.398 L28.266,14.398 L25.016,11.425 C24.168,10.648 23.067,10.221 21.918,10.221 L21.918,10.221 Z M21.214,11.721 L21.2493,14.8649 C21.2493,16.3039 22.4193,17.4749 23.8593,17.4749 L23.8593,17.4749 L28.2433347,17.4744681 C28.2536055,17.5755966 28.2588813,17.6775588 28.259,17.78 L28.259,17.78 L28.274,26.251 C28.274,27.337 27.392,28.221 26.308,28.221 L26.308,28.221 L13.76,28.221 C12.675,28.221 11.793,27.337 11.793,26.25 L11.793,26.25 L11.774,13.691 C11.774,12.605 12.656,11.721 13.741,11.721 L13.741,11.721 L21.214,11.721 Z M17.0867,23.3636 C16.4837,23.3636 16.0917,23.6796 16.0917,24.3596 C16.0917,24.6856 16.1827,24.9276 16.3437,25.0916 C16.5177,25.2686 16.7737,25.3546 17.0867,25.3546 C17.4007,25.3546 17.6567,25.2686 17.8307,25.0916 C17.9917,24.9276 18.0827,24.6856 18.0827,24.3596 C18.0827,23.6796 17.6907,23.3636 17.0867,23.3636 Z M26.2381,23.6092 L19.9811,23.6092 C19.5671,23.6092 19.2311,23.9452 19.2311,24.3592 C19.2311,24.7732 19.5671,25.1092 19.9811,25.1092 L19.9811,25.1092 L26.2381,25.1092 C26.6521,25.1092 26.9881,24.7732 26.9881,24.3592 C26.9881,23.9452 26.6521,23.6092 26.2381,23.6092 L26.2381,23.6092 Z M22.7158792,11.8253598 C23.19194,11.9523195 23.6340149,12.1924437 24.005,12.531 L24.005,12.531 L27.255,15.505 C27.4105815,15.6476163 27.5500656,15.8049537 27.6720325,15.9739085 L27.6720325,15.9739085 L23.8593,15.9749 C23.2473,15.9749 22.7493,15.4769 22.7493,14.8569 L22.7493,14.8569 Z" id="Combined-Shape"></path>
            </g>
        </g>
    </g>
</svg>

<svg width="40" height="40" viewBox="0 0 40 40" xmlns="http://www.w3.org/2000/svg"><path d="M19.995 0C31.038 0 39.99 8.952 39.99 19.995c0 11.043-8.952 19.995-19.995 19.995C8.952 39.99.001 31.038.001 19.995 0 8.952 8.952 0 19.995 0zm1.923 10.221h-8.177a3.473 3.473 0 00-3.467 3.471l.02 12.56a3.472 3.472 0 003.466 3.47h12.548a3.472 3.472 0 003.466-3.472l-.015-8.472a4.594 4.594 0 00-1.493-3.38l-3.25-2.973a4.575 4.575 0 00-3.098-1.204zm-.704 1.5l.036 3.144c0 1.44 1.17 2.61 2.61 2.61h4.384c.01.1.015.203.015.305l.015 8.471a1.97 1.97 0 01-1.966 1.97H13.76a1.97 1.97 0 01-1.967-1.97l-.019-12.56a1.97 1.97 0 011.967-1.97h7.473zm-4.127 11.643c-.603 0-.995.316-.995.996 0 .326.091.568.252.732.174.177.43.263.743.263.314 0 .57-.086.744-.263.161-.164.252-.406.252-.732 0-.68-.392-.996-.996-.996zm9.152.245h-6.257a.75.75 0 000 1.5h6.257a.75.75 0 000-1.5zm-3.523-11.783c.476.127.919.367 1.29.705l3.25 2.974c.155.143.295.3.417.47H23.86c-.612 0-1.11-.498-1.11-1.118z" fill="#000" fill-rule="nonzero"/></svg>
